16x16/places/folder-kde.svg

<svg xmlns="http://www.w3.org/2000/svg" width="16" height="16" version="1.1">
 <defs>
  <style id="current-color-scheme" type="text/css">
   .ColorScheme-Text { color:#323a41; } .ColorScheme-Highlight { color:#4285f4; } .ColorScheme-NeutralText { color:#ff9800; } .ColorScheme-PositiveText { color:#4caf50; } .ColorScheme-NegativeText { color:#f44336; }
  </style>
 </defs>
 <path style="fill:currentColor" class="ColorScheme-Text" d="M 4.2812,4.2012 C 4.2566,4.2042 4.2295,4.2099 4.2109,4.2285 L 3.3574,5.0762 C 3.3216,5.1119 3.3174,5.1658 3.3437,5.209 L 4.252,6.6973 C 4.0386,7.0437 3.873,7.4209 3.7617,7.8223 L 2.0879,8.168 C 2.0371,8.1784 2,8.2273 2,8.2793 V 9.4766 C 2,9.5273 2.0386,9.5703 2.0879,9.582 L 3.7109,9.9727 C 3.8131,10.424 3.9857,10.849 4.2148,11.236 L 3.2695,12.666 C 3.2409,12.71 3.2462,12.768 3.2832,12.805 L 4.1367,13.652 C 4.1727,13.688 4.2283,13.692 4.2715,13.666 L 5.748,12.775 C 6.1127,12.993 6.5105,13.16 6.9336,13.266 L 7.2793,14.912 C 7.2901,14.963 7.3324,15 7.3848,15 H 8.5918 C 8.6422,15 8.6853,14.967 8.6973,14.918 L 9.1074,13.26 C 9.5339,13.149 9.931,12.971 10.297,12.746 L 11.779,13.711 C 11.823,13.739 11.881,13.734 11.918,13.697 L 12.768,12.852 C 12.804,12.816 12.812,12.76 12.785,12.717 L 12.205,11.77 12.016,11.828 11.941,11.801 10.729,10.242 C 10.242,11.312 9.1753,11.999 8,12 6.3431,12 5,10.657 5,9 5.001,7.9707 5.5296,7.0137 6.4004,6.4648 V 4.875 C 6.1772,4.9579 6.0305,5.0593 5.8262,5.1758 L 4.3496,4.2168 C 4.3277,4.2024 4.3056,4.1988 4.2812,4.2012 Z M 7,1.3989 V 9.9117 L 8.9944,9.6001 V 6.0001 L 11.8,10 14,9 11,5.6001 14,2 11.8,0.99998 8.9944,5.2001 9,1 Z"/>
</svg>

<svg xmlns="http://www.w3.org/2000/svg" width="16" height="16"><defs><style id="current-color-scheme" type="text/css"></style></defs><path style="fill:currentColor;color:#323a41" d="M4.281 4.201c-.024.003-.051.009-.07.028l-.854.847a.107.107 0 0 0-.013.133l.908 1.488a4.365 4.365 0 0 0-.49 1.125l-1.674.346A.114.114 0 0 0 2 8.279v1.198c0 .05.039.093.088.105l1.623.39c.102.452.275.877.504 1.264l-.946 1.43a.11.11 0 0 0 .014.139l.854.847a.11.11 0 0 0 .135.014l1.476-.891c.365.218.763.385 1.186.491l.345 1.646c.011.051.053.088.106.088h1.207c.05 0 .093-.033.105-.082l.41-1.658a4.375 4.375 0 0 0 1.19-.514l1.482.965a.112.112 0 0 0 .139-.014l.85-.845a.11.11 0 0 0 .017-.135l-.58-.947-.189.058-.075-.027-1.212-1.559A3 3 0 1 1 6.4 6.465v-1.59c-.223.083-.37.184-.574.3L4.35 4.218A.1.1 0 0 0 4.28 4.2zM7 1.4v8.513L8.994 9.6V6l2.806 4L14 9l-3-3.4L14 2l-2.2-1-2.806 4.2L9 1z"/></svg>
